dist/img/socials/vk.svg

<svg width="44" height="28" viewBox="0 0 44 28" fill="none" xmlns="http://www.w3.org/2000/svg">
<path d="M23.965 28C8.93192 28 0.357277 17.4895 0 0H7.53029C7.77764 12.8368 13.3292 18.2743 17.7264 19.3954V0H24.817V11.0711C29.1593 10.5946 33.7214 5.54955 35.2605 0H42.351C41.7711 2.87815 40.615 5.60331 38.9552 8.005C37.2954 10.4067 35.1675 12.4333 32.7046 13.958C35.4537 15.3511 37.882 17.323 39.829 19.7435C41.7761 22.164 43.1977 24.9781 44 28H36.1949C35.4746 25.3752 34.0108 23.0256 31.9868 21.2456C29.9628 19.4657 27.4687 18.3345 24.817 17.994V28H23.965Z" fill="#383838"/>
</svg>

<svg xmlns="http://www.w3.org/2000/svg" width="44" height="28" fill="none"><path fill="#383838" d="M23.965 28C8.932 28 .357 17.49 0 0h7.53c.248 12.837 5.8 18.274 10.196 19.395V0h7.091v11.071C29.159 10.595 33.721 5.55 35.261 0h7.09a21.576 21.576 0 0 1-3.396 8.005 21.112 21.112 0 0 1-6.25 5.953 21.789 21.789 0 0 1 7.124 5.786A22.302 22.302 0 0 1 44 28h-7.805a13.882 13.882 0 0 0-4.208-6.754 13.452 13.452 0 0 0-7.17-3.252V28h-.852Z"/></svg>
